packages/tokens/icons/starOutlined/size16Px.svg

<svg viewBox="0 0 16 16" fill="none" xmlns="http://www.w3.org/2000/svg" width="1em" height="1em"><path d="M4.12261 9.32528L2.38614 7.64869C1.80327 7.08592 2.09658 6.09991 2.89227 5.94721L5.52262 5.44244C5.84159 5.38123 6.11096 5.16892 6.24501 4.87309L7.08915 3.01016C7.44396 2.22713 8.55604 2.22713 8.91085 3.01016L9.75499 4.87309C9.88904 5.16892 10.1584 5.38123 10.4774 5.44244L13.1077 5.94721C13.9034 6.09991 14.1967 7.08592 13.6139 7.64869L11.8774 9.32528C11.6411 9.55345 11.5319 9.88314 11.5853 10.2073L12.0399 12.966C12.1756 13.79 11.3013 14.4076 10.5701 14.0042L8.48308 12.8527C8.18239 12.6868 7.81761 12.6868 7.51692 12.8527L5.42992 14.0042C4.6987 14.4076 3.82437 13.79 3.96014 12.966L4.41471 10.2073C4.46812 9.88314 4.35893 9.55345 4.12261 9.32528Z" stroke="currentColor"/></svg>

<svg xmlns="http://www.w3.org/2000/svg" fill="none" viewBox="0 0 16 16" width="1em" height="1em"><path stroke="currentColor" d="M4.123 9.325 2.386 7.65a1 1 0 0 1 .506-1.702l2.63-.505a1 1 0 0 0 .723-.569l.844-1.863c.355-.783 1.467-.783 1.822 0l.844 1.863a1 1 0 0 0 .722.57l2.63.504a1 1 0 0 1 .507 1.702l-1.737 1.676a1 1 0 0 0-.292.882l.455 2.759a1 1 0 0 1-1.47 1.038l-2.087-1.151a1 1 0 0 0-.966 0l-2.087 1.15a1 1 0 0 1-1.47-1.038l.455-2.759a1 1 0 0 0-.292-.882Z"/></svg>
